icons/css-map.svg

<svg version="1.1" viewBox="0 0 32 32" xmlns="http://www.w3.org/2000/svg">
 <path d="m7.19 4.01-0.79 4 13.33-0.01-0.49 2-13.23 0.01-0.79 4 13.3-0.01-0.84 3.99-5.68 1.3207-4-1.3107 0.46-1.99h-3.63l-0.83 3.99 8 2.5696 8.75-2.2096 1.31-6.57 0.26-1.32 1.68-8.47z" fill="#42a5f5"/>
 <path d="m24 10v2h2v14h-14v-2h-2v4h18v-18z" fill="#42a5f5"/>
</svg>

<svg xmlns="http://www.w3.org/2000/svg" viewBox="0 0 32 32"><path fill="#42a5f5" d="m7.19 4.01-.79 4L19.73 8l-.49 2-13.23.01-.79 4 13.3-.01-.84 3.99L12 19.31 8 18l.46-1.99H4.83L4 20l8 2.57 8.75-2.21 1.31-6.57.26-1.32L24 4z"/><path fill="#42a5f5" d="M24 10v2h2v14H12v-2h-2v4h18V10z"/></svg>
